public/images/logo/logo-white.svg

<svg clip-rule="evenodd" fill-rule="evenodd" stroke-linejoin="round" stroke-miterlimit="2" viewBox="0 0 560 300" xmlns="http://www.w3.org/2000/svg"><g transform="matrix(.697198 0 0 .605656 -2072.08 -967.342)"><path d="m2972.02 1597.18h803.216v495.331h-803.216z" fill="none"/><g transform="matrix(.238725352 -.09197698619 .07990065801 .2748076941 2970.737021 1774.190637)"><path d="m46.513 362.1c14.206-177.255 162.579-316.7 343.487-316.7s329.281 139.445 343.487 316.7h-178.609c-13.296-79.019-82.103-139.3-164.878-139.3s-151.582 60.281-164.878 139.3z" fill="#ff1b1c"/><g fill="#fff"><path d="m733.495 417.8c-14.158 177.303-162.553 316.8-343.495 316.8s-329.337-139.497-343.495-316.8h178.6c13.255 79.068 82.085 139.4 164.895 139.4s151.64-60.332 164.895-139.4z"/><path d="m500.58 417.8c-12.423 49.5-57.25 86.2-110.58 86.2s-98.157-36.7-110.58-86.2c-2.234-8.899-3.42-18.212-3.42-27.8 0-9.624 1.195-18.971 3.445-27.9 12.458-49.45 57.26-86.1 110.555-86.1s98.097 36.65 110.555 86.1c2.25 8.929 3.445 18.276 3.445 27.9 0 9.588-1.186 18.901-3.42 27.8z"/></g></g><path d="m12.95 2.688 1.912 5.813c.099.301.336.538.637.637l5.813 1.912c.411.135.688.518.688.95s-.277.815-.688.95l-5.813 1.912c-.301.099-.538.336-.637.637l-1.912 5.813c-.135.411-.518.688-.95.688s-.815-.277-.95-.688l-1.912-5.813c-.099-.301-.336-.538-.637-.637l-5.813-1.912c-.411-.135-.688-.518-.688-.95s.277-.815.688-.95l5.813-1.912c.301-.099.538-.336.637-.637l1.912-5.813c.135-.411.518-.688.95-.688s.815.277.95.688z" fill="#ffcf00" transform="matrix(6.18879929924 1.15686977933 -.93949930401 6.66000350143 3072.26798583197 1641.6672712772)"/><path d="m12.95 2.688 1.912 5.813c.099.301.336.538.637.637l5.813 1.912c.411.135.688.518.688.95s-.277.815-.688.95l-5.813 1.912c-.301.099-.538.336-.637.637l-1.912 5.813c-.135.411-.518.688-.95.688s-.815-.277-.95-.688l-1.912-5.813c-.099-.301-.336-.538-.637-.637l-5.813-1.912c-.411-.135-.688-.518-.688-.95s.277-.815.688-.95l5.813-1.912c.301-.099.538-.336.637-.637l1.912-5.813c.135-.411.518-.688.95-.688s.815.277.95.688z" fill="#ffcf00" transform="matrix(4.15366008752 .94879377505 -.77052059688 4.46992133572 3165.63118555613 1605.72351594824)"/><path d="m759.644 471.48c5.436.553 9.524 2.265 12.968 4.167 5.107 2.822 9.859 7 13.843 14.968 5.957 11.915 15.907 66.267 18.744 78.892 2.924 13.014.831 23.508-12.56 34.533-6.362 5.239-19.961 11.946-47.707 21.648-12.215 4.271-64.968 16.093-77.407 17.206-11.777 1.053-39.013.966-49.277.845-22.892-.268-76.79-5.542-86.772-6.169-36.008-2.259-109.407-4.331-109.407-4.331-15.812 1.419-64.372 5.5-81.483 8.973-14.075 2.857-47.914 8.765-59.831 12.16-5.812 1.656-35.412 9.097-56.682 14.523-15.141 3.862-24.929 5.991-30.574 6.133-12.549.317-20.489-3.997-26.021-9.093-5.409-4.984-10.07-12.168-9.808-23.541.12-5.19 2.358-14.191 6.405-28.13 9.224-31.771 15.136-50.613 21.164-62.575 6.49-12.879 13.752-20.403 22.627-26.134 4.76-3.074 10.192-5.569 16.854-7.918-6.681-12.071-7.669-27.178.107-43.875 4.825-10.361 12.527-17.754 21.114-22.61-4.736-13.123-4.194-26.641.609-39.116 7.477-19.422 26.56-37.503 57.093-45.711 19.611-5.273 36.497-2.753 48.864 3.57 2.546-2.075 5.189-3.719 7.9-5.098 7.093-3.609 15.533-5.439 27.336-5.533 7.964-.062 14.226.931 19.167 2.477 1.827-1.384 3.713-2.507 5.633-3.496 4.194-2.161 9.332-3.466 17.654-4.705 11.374-1.693 25.027-1.361 31.351-.11 2.887.57 5.409 1.374 7.596 2.292 5.703-2.704 12.397-4.842 21.886-6.61 31.821-5.93 58.976 1.776 76.058 17.825.225-.089.452-.177.679-.264 6.961-2.66 16.103-3.679 29.602-4.114 20.611-.664 36.166-.158 42.615.83 2.105.323 4.011.756 5.73 1.257 7.682-2.995 26.659-8.349 35.11-9.572 44.164-6.396 71.548 9.565 82.335 29.935 9.141 17.261 8.314 42.902-12.658 70.01 4.543 6.654 7.499 12.073 9.143 16.461zm-457.988-90.121c-40.686 10.879-53.811 44.78-26.731 69.052 4.509 4.041 10.315 9.248 12.902 11.573 5.341 4.797 5.409 6.193.656 13.465-6.554 10.029-24.068 10.086-20.238.066 6.958-18.2-20.123-17.404-28.667.842-16.552 35.35 39.307 49.527 71.342 18.107 23.058-22.615 20.329-46.659-7.881-69.422-9.824-7.927-10.648-13.744-2.537-17.916 6.476-3.331 10.074-1.614 11.139 5.317 2.01 13.083 22.548 9.05 26.418-5.188 5.512-20.283-11.673-32.508-36.403-25.896zm-2.679 138.321c-31.987 8.412-27.994 4.526-36.372 35.404-3.216 11.851-6.935 25.502-8.264 30.334-9.929 36.089-10.16 37.699-5.771 40.141 4.095 2.277 19.11-1.976 20.685-5.86 1.694-4.175 11.533-37.448 11.533-39.002 0-1.918.73-2.22 9.963-4.116 15.042-3.088 18.638-6.349 17.896-16.222-.437-5.806-2.266-6.711-10.243-5.073-7.389 1.518-10.443-9.697-3.163-11.614.911-.241 6.971-1.71 13.465-3.267 13.3-3.187 13.071-2.967 15.786-15.195 2.542-11.451-.498-12.109-25.515-5.53zm390.804-149.151c-7.259 1.045-24.738 5.765-28.741 7.76-4.818 2.402-4.184 17.1.9 20.863 2.419 1.789 8.601 1.111 15.888-1.743 22.246-8.713 35.449 1.594 28.4 22.168-4.089 11.935-20.6 22.628-18.067 11.701 3.786-16.334-1.912-21.36-19.149-16.896-14.514 3.761-13.843 2.127-24.421 59.443-5.305 28.745-2.618 32.018 22.067 26.891 7.444-1.545 7.353-1.37 10.566-20.235 2.791-16.373 3.125-16.997 9.103-17.022 4.55-.018 6.577 2.136 16.614 17.658 7.655 11.836 7.399 11.743 20.749 7.55 19.474-6.119 19.616-12.368.83-36.554l-5.991-7.715 6.78-7.148c38.059-40.123 19.663-74.67-35.528-66.721zm-195.921-6.384c-7.815 1.448-12.789 3.053-17.15 5.535l-4.158 2.365v9.486c0 12.964 1.068 14.086 9.724 10.222 25.617-11.433 47.277 2.227 35.145 23.318-9.787 17.013-27 22.407-20.443 3.649 3.78-10.816-8.882-13.921-24.63-6.908-7.571 3.372-6.777 1.45-14.266 34.576-2.57 11.37-5.862 24.75-7.314 29.734-4.485 15.387-4.035 15.817 16.333 15.574 8.979-.106 14.84-.595 15.26-1.271.375-.604 2.53-8.318 4.787-17.142l4.106-16.043 3.642-.509c40.306-5.626 60.322-23.699 60.686-54.791.32-27.373-27.16-44.201-61.722-37.795zm-64.441 4.78c-12.478 1.846-10.631-1.691-21.183 40.565-12.823 51.344-13.873 53.578-25.712 54.642-6.058.545-7.135.363-9.037-1.529l-2.159-2.147 2.062-7.034c1.134-3.869 3.87-13.779 6.079-22.022 2.21-8.244 6.168-22.785 8.795-32.313 6.594-23.918 6.57-23.991-7.696-23.879-19.354.152-21.663 3.606-34.772 52.057-8.425 31.135-9.265 35.351-8.497 42.658 4.696 44.682 77.937 34.506 96.614-13.424 4.498-11.545 20.378-85.591 18.692-87.163-1.731-1.611-13.649-1.823-23.186-.411zm264.32 142.105c-10.53 3-9.517.68-14.937 34.223-2.278 14.108-4.542 26.708-5.028 27.999-.908 2.403-6.172-12.627-14.747-42.102-4.343-14.932-3.742-14.358-14.281-13.618-14.05.986-13.866-.583-4.276 36.359 16.265 62.652 14.621 59.194 27.603 58.039 22.989-2.046 24.066-4.036 33.701-62.174 6.353-38.334 5.474-42.573-8.035-38.726zm-94.464-132.433c-30.075.963-28.848-.977-43.153 68.308-2.289 11.086-5.307 25.123-6.708 31.194-5.396 23.388-6.877 22.284 31.645 23.591l30.552 1.036 4.414-3.598c19.722-16.071 14.034-29.616-12.297-29.276-19.301.249-17.767 1.246-15.538-10.105l1.811-9.224 12.473-.652c21.811-1.139 27.543-4.943 27.543-18.278 0-7.009-1.596-7.609-18.047-6.788-16.187.807-15.109 1.636-12.267-9.427l1.859-7.236 6.172-.753c3.396-.413 10.574-.674 15.953-.579l9.78.174 2.97-3.538c4.779-5.694 7.098-20.722 3.638-23.579-1.83-1.511-17.791-2.008-40.8-1.27zm142.307 118.427c-34.009 11.267-31.717 6.889-26.31 50.254 6.998 56.125 6.469 55.104 25.181 48.597 38.238-13.297 45.195-17.467 43.28-25.941-3.004-13.298-5.177-13.78-24.727-5.495-12.473 5.285-13.269 5.091-14.29-3.476l-.62-5.207 10.986-3.893c13.258-4.697 14.739-6.056 14.425-13.223-.47-10.744-3.442-11.918-17.596-6.95-10.319 3.622-9.604 3.856-10.355-3.382l-.586-5.644 8.185-3.367c4.502-1.852 9.627-3.956 11.389-4.677 7.298-2.983 9.954-12.077 5.889-20.163-2.462-4.896-2.264-4.916-24.851 2.567zm-137.12 22.993c-1.667 1.658-1.743 4.599-1.051 40.572 1.056 54.785.667 53.29 13.605 52.201 14.757-1.243 13.971.369 12.841-26.338-.492-11.655-1.264-31.029-1.715-43.055-.585-15.626-1.212-22.335-2.197-23.516-2.069-2.479-18.96-2.373-21.483.136zm-188.036-15.029c-21.716 1.134-20.51.257-23.975 17.442-2.3 11.412-11.134 61.447-12.617 71.466-.484 3.278-.112 4.278 2.603 6.978 3.758 3.736 1.567 3.66 30.505 1.077l23.232-2.073 2.785-3.029c11.495-12.507 3.765-22.717-15.346-20.266-7.239.928-13.378 1.472-13.643 1.208-.396-.394.668-13.858 1.12-14.178.077-.054 6.082-.677 13.343-1.385 15.961-1.554 16.419-1.849 16.419-10.599 0-11.362-1.382-12.082-17.67-9.197-8.154 1.446-11.088-5.659-5.644-13.665.118-.172 6.204-.975 13.527-1.781 16.026-1.766 16.732-2.25 18.193-12.457 1.666-11.637 2.526-11.387-32.832-9.541zm-182.363 28.346c-33.244 9.225-34.997 11.859-56.182 84.43-9.3 31.86-10.561 30.705 23.955 21.948 33.799-8.575 31.002-7.578 33.122-11.804 8.562-17.064 4.588-20.848-17.501-16.661-12.857 2.436-11.993 2.89-9.345-4.909 2.701-7.953 2.213-7.609 17.07-12.043 14.155-4.224 16.2-5.797 18.173-13.981 2.176-9.018.066-9.861-14.795-5.908-10.602 2.82-10.527 2.911-6.157-7.492l2.779-6.616 14.02-3.427c15.333-3.748 15.804-4.063 18.232-12.194 4.749-15.905.5-17.967-23.371-11.343zm243.858-28.035c-27.927 10.593-35.947 61.477-13.587 86.21 19.417 21.477 58.49 11.404 59.053-15.225.222-10.531-15.294-13.816-20.189-4.274-8.689 16.939-22.561 8.434-24.496-15.018-1.749-21.217 4.575-33.167 16.316-30.832 3.713.738 12.353 8.402 12.353 10.956 0 4.763 11.638 6.751 15.725 2.687 15.208-15.125-21.782-43.378-45.175-34.504zm-116.022 3.791c-31.624 3.035-29.599 1.392-36.746 29.812-17.641 70.155-17.692 76.311-.601 72.86 11.506-2.322 12.351-2.834 12.413-7.515.028-2.112 2.064-11.748 4.523-21.413l4.471-17.573 10.808-1.195c5.946-.657 11.183-1.238 11.641-1.292 1.55-.181 3.845-7.24 3.845-11.824 0-6.511-1.379-7.278-11.919-6.625-10.302.64-9.949.832-8.606-4.697 1.54-6.345 2.118-6.631 16.72-8.262 14.969-1.672 16.772-2.614 18.404-9.622 1.452-6.232-1.114-15.443-4.106-14.741-.34.081-9.722 1.019-20.847 2.087zm168.689 5.595c-6.766 6.73-1.7 18.52 8.422 19.598 8.674.923 8.667.913 9.955 16.077 1.639 19.305 5.141 53.876 5.715 56.438.669 2.975 3.518 3.759 13.2 3.638 14.118-.176 13.392 2.927 9.814-41.903-2.651-33.224-3.351-30.654 8.341-30.68 9.823-.022 11.762-1.863 11.762-11.172 0-8.9-.62-9.2-22.866-11.065-10.576-.887-23.204-2.053-28.063-2.593-12.502-1.386-13.296-1.305-16.28 1.662z" fill="#fff" transform="matrix(.9894408238 .03770618073 -.03349499239 1.16470282095 2960.581925 1270.2354884)"/></g></svg>

<?xml version="1.0" encoding="UTF-8" standalone="no"?>
<!DOCTYPE svg PUBLIC "-//W3C//DTD SVG 1.1//EN" "http://www.w3.org/Graphics/SVG/1.1/DTD/svg11.dtd">
<svg width="100%" height="100%" viewBox="0 0 560 300" version="1.1" xmlns="http://www.w3.org/2000/svg" xmlns:xlink="http://www.w3.org/1999/xlink" xml:space="preserve" xmlns:serif="http://www.serif.com/" style="fill-rule:evenodd;clip-rule:evenodd;stroke-linejoin:round;stroke-miterlimit:2;">
    <g transform="matrix(1,0,0,1,-3844.37,-1597)">
        <g id="Artboard1" transform="matrix(0.697198,0,0,0.605656,1772.29,629.658)">
            <rect x="2972.02" y="1597.18" width="803.216" height="495.331" style="fill:none;"/>
            <g transform="matrix(1.00745,0,0,1.88057,-56.2271,-1599.74)">
                <g transform="matrix(0.23696,-0.0489091,0.0793098,0.14613,3004.58,1794.1)">
                    <g>
                        <path d="M46.513,362.1C60.719,184.845 209.092,45.4 390,45.4C570.908,45.4 719.281,184.845 733.487,362.1L554.878,362.1C541.582,283.081 472.775,222.8 390,222.8C307.225,222.8 238.418,283.081 225.122,362.1L46.513,362.1Z" style="fill:rgb(255,27,28);"/>
                        <path d="M733.495,417.8C719.337,595.103 570.942,734.6 390,734.6C209.058,734.6 60.663,595.103 46.505,417.8L225.105,417.8C238.36,496.868 307.19,557.2 390,557.2C472.81,557.2 541.64,496.868 554.895,417.8L733.495,417.8Z" style="fill:white;"/>
                        <path d="M500.58,417.8C488.157,467.3 443.33,504 390,504C336.67,504 291.843,467.3 279.42,417.8C277.186,408.901 276,399.588 276,390C276,380.376 277.195,371.029 279.445,362.1C291.903,312.65 336.705,276 390,276C443.295,276 488.097,312.65 500.555,362.1C502.805,371.029 504,380.376 504,390C504,399.588 502.814,408.901 500.58,417.8Z" style="fill:white;"/>
                    </g>
                </g>
                <g transform="matrix(1.20876,-0.0101022,0.0171808,0.781791,2355.13,1492.96)">
                    <g transform="matrix(5.06998,0.852386,-0.835728,4.51916,616.354,303.018)">
                        <path d="M12.95,2.688L14.862,8.501C14.961,8.802 15.198,9.039 15.499,9.138L21.312,11.05C21.723,11.185 22,11.568 22,12C22,12.432 21.723,12.815 21.312,12.95L15.499,14.862C15.198,14.961 14.961,15.198 14.862,15.499L12.95,21.312C12.815,21.723 12.432,22 12,22C11.568,22 11.185,21.723 11.05,21.312L9.138,15.499C9.039,15.198 8.802,14.961 8.501,14.862L2.688,12.95C2.277,12.815 2,12.432 2,12C2,11.568 2.277,11.185 2.688,11.05L8.501,9.138C8.802,9.039 9.039,8.802 9.138,8.501L11.05,2.688C11.185,2.277 11.568,2 12,2C12.432,2 12.815,2.277 12.95,2.688Z" style="fill:rgb(255,207,0);"/>
                    </g>
                    <g transform="matrix(3.40109,0.689293,-0.675823,3.03159,693.355,279.565)">
                        <path d="M12.95,2.688L14.862,8.501C14.961,8.802 15.198,9.039 15.499,9.138L21.312,11.05C21.723,11.185 22,11.568 22,12C22,12.432 21.723,12.815 21.312,12.95L15.499,14.862C15.198,14.961 14.961,15.198 14.862,15.499L12.95,21.312C12.815,21.723 12.432,22 12,22C11.568,22 11.185,21.723 11.05,21.312L9.138,15.499C9.039,15.198 8.802,14.961 8.501,14.862L2.688,12.95C2.277,12.815 2,12.432 2,12C2,11.568 2.277,11.185 2.688,11.05L8.501,9.138C8.802,9.039 9.039,8.802 9.138,8.501L11.05,2.688C11.185,2.277 11.568,2 12,2C12.432,2 12.815,2.277 12.95,2.688Z" style="fill:rgb(255,207,0);"/>
                    </g>
                </g>
                <g transform="matrix(0.982124,0.0200504,-0.0332473,0.619335,2994.5,1526.12)">
                    <path d="M759.644,471.48C765.08,472.033 769.168,473.745 772.612,475.647C777.719,478.469 782.471,482.647 786.455,490.615C792.412,502.53 802.362,556.882 805.199,569.507C808.123,582.521 806.03,593.015 792.639,604.04C786.277,609.279 772.678,615.986 744.932,625.688C732.717,629.959 679.964,641.781 667.525,642.894C655.748,643.947 628.512,643.86 618.248,643.739C595.356,643.471 541.458,638.197 531.476,637.57C495.468,635.311 422.069,633.239 422.069,633.239C406.257,634.658 357.697,638.739 340.586,642.212C326.511,645.069 292.672,650.977 280.755,654.372C274.943,656.028 245.343,663.469 224.073,668.895C208.932,672.757 199.144,674.886 193.499,675.028C180.95,675.345 173.01,671.031 167.478,665.935C162.069,660.951 157.408,653.767 157.67,642.394C157.79,637.204 160.028,628.203 164.075,614.264C173.299,582.493 179.211,563.651 185.239,551.689C191.729,538.81 198.991,531.286 207.866,525.555C212.626,522.481 218.058,519.986 224.72,517.637C218.039,505.566 217.051,490.459 224.827,473.762C229.652,463.401 237.354,456.008 245.941,451.152C241.205,438.029 241.747,424.511 246.55,412.036C254.027,392.614 273.11,374.533 303.643,366.325C323.254,361.052 340.14,363.572 352.507,369.895C355.053,367.82 357.696,366.176 360.407,364.797C367.5,361.188 375.94,359.358 387.743,359.264C395.707,359.202 401.969,360.195 406.91,361.741C408.737,360.357 410.623,359.234 412.543,358.245C416.737,356.084 421.875,354.779 430.197,353.54C441.571,351.847 455.224,352.179 461.548,353.43C464.435,354 466.957,354.804 469.144,355.722C474.847,353.018 481.541,350.88 491.03,349.112C522.851,343.182 550.006,350.888 567.088,366.937C567.313,366.848 567.54,366.76 567.767,366.673C574.728,364.013 583.87,362.994 597.369,362.559C617.98,361.895 633.535,362.401 639.984,363.389C642.089,363.712 643.995,364.145 645.714,364.646C653.396,361.651 672.373,356.297 680.824,355.074C724.988,348.678 752.372,364.639 763.159,385.009C772.3,402.27 771.473,427.911 750.501,455.019C755.044,461.673 758,467.092 759.644,471.48ZM301.656,381.359C260.97,392.238 247.845,426.139 274.925,450.411C279.434,454.452 285.24,459.659 287.827,461.984C293.168,466.781 293.236,468.177 288.483,475.449C281.929,485.478 264.415,485.535 268.245,475.515C275.203,457.315 248.122,458.111 239.578,476.357C223.026,511.707 278.885,525.884 310.92,494.464C333.978,471.849 331.249,447.805 303.039,425.042C293.215,417.115 292.391,411.298 300.502,407.126C306.978,403.795 310.576,405.512 311.641,412.443C313.651,425.526 334.189,421.493 338.059,407.255C343.571,386.972 326.386,374.747 301.656,381.359ZM298.977,519.68C266.99,528.092 270.983,524.206 262.605,555.084C259.389,566.935 255.67,580.586 254.341,585.418C244.412,621.507 244.181,623.117 248.57,625.559C252.665,627.836 267.68,623.583 269.255,619.699C270.949,615.524 280.788,582.251 280.788,580.697C280.788,578.779 281.518,578.477 290.751,576.581C305.793,573.493 309.389,570.232 308.647,560.359C308.21,554.553 306.381,553.648 298.404,555.286C291.015,556.804 287.961,545.589 295.241,543.672C296.152,543.431 302.212,541.962 308.706,540.405C322.006,537.218 321.777,537.438 324.492,525.21C327.034,513.759 323.994,513.101 298.977,519.68ZM689.781,370.529C682.522,371.574 665.043,376.294 661.04,378.289C656.222,380.691 656.856,395.389 661.94,399.152C664.359,400.941 670.541,400.263 677.828,397.409C700.074,388.696 713.277,399.003 706.228,419.577C702.139,431.512 685.628,442.205 688.161,431.278C691.947,414.944 686.249,409.918 669.012,414.382C654.498,418.143 655.169,416.509 644.591,473.825C639.286,502.57 641.973,505.843 666.658,500.716C674.102,499.171 674.011,499.346 677.224,480.481C680.015,464.108 680.349,463.484 686.327,463.459C690.877,463.441 692.904,465.595 702.941,481.117C710.596,492.953 710.34,492.86 723.69,488.667C743.164,482.548 743.306,476.299 724.52,452.113L718.529,444.398L725.309,437.25C763.368,397.127 744.972,362.58 689.781,370.529ZM493.86,364.145C486.045,365.593 481.071,367.198 476.71,369.68L472.552,372.045L472.552,381.531C472.552,394.495 473.62,395.617 482.276,391.753C507.893,380.32 529.553,393.98 517.421,415.071C507.634,432.084 490.421,437.478 496.978,418.72C500.758,407.904 488.096,404.799 472.348,411.812C464.777,415.184 465.571,413.262 458.082,446.388C455.512,457.758 452.22,471.138 450.768,476.122C446.283,491.509 446.733,491.939 467.101,491.696C476.08,491.59 481.941,491.101 482.361,490.425C482.736,489.821 484.891,482.107 487.148,473.283L491.254,457.24L494.896,456.731C535.202,451.105 555.218,433.032 555.582,401.94C555.902,374.567 528.422,357.739 493.86,364.145ZM429.419,368.925C416.941,370.771 418.788,367.234 408.236,409.49C395.413,460.834 394.363,463.068 382.524,464.132C376.466,464.677 375.389,464.495 373.487,462.603L371.328,460.456L373.39,453.422C374.524,449.553 377.26,439.643 379.469,431.4C381.679,423.156 385.637,408.615 388.264,399.087C394.858,375.169 394.834,375.096 380.568,375.208C361.214,375.36 358.905,378.814 345.796,427.265C337.371,458.4 336.531,462.616 337.299,469.923C341.995,514.605 415.236,504.429 433.913,456.499C438.411,444.954 454.291,370.908 452.605,369.336C450.874,367.725 438.956,367.513 429.419,368.925ZM693.739,511.03C683.209,514.03 684.222,511.71 678.802,545.253C676.524,559.361 674.26,571.961 673.774,573.252C672.866,575.655 667.602,560.625 659.027,531.15C654.684,516.218 655.285,516.792 644.746,517.532C630.696,518.518 630.88,516.949 640.47,553.891C656.735,616.543 655.091,613.085 668.073,611.93C691.062,609.884 692.139,607.894 701.774,549.756C708.127,511.422 707.248,507.183 693.739,511.03ZM599.275,378.597C569.2,379.56 570.427,377.62 556.122,446.905C553.833,457.991 550.815,472.028 549.414,478.099C544.018,501.487 542.537,500.383 581.059,501.69L611.611,502.726L616.025,499.128C635.747,483.057 630.059,469.512 603.728,469.852C584.427,470.101 585.961,471.098 588.19,459.747L590.001,450.523L602.474,449.871C624.285,448.732 630.017,444.928 630.017,431.593C630.017,424.584 628.421,423.984 611.97,424.805C595.783,425.612 596.861,426.441 599.703,415.378L601.562,408.142L607.734,407.389C611.13,406.976 618.308,406.715 623.687,406.81L633.467,406.984L636.437,403.446C641.216,397.752 643.535,382.724 640.075,379.867C638.245,378.356 622.284,377.859 599.275,378.597ZM741.582,497.024C707.573,508.291 709.865,503.913 715.272,547.278C722.27,603.403 721.741,602.382 740.453,595.875C778.691,582.578 785.648,578.408 783.733,569.934C780.729,556.636 778.556,556.154 759.006,564.439C746.533,569.724 745.737,569.53 744.716,560.963L744.096,555.756L755.082,551.863C768.34,547.166 769.821,545.807 769.507,538.64C769.037,527.896 766.065,526.722 751.911,531.69C741.592,535.312 742.307,535.546 741.556,528.308L740.97,522.664L749.155,519.297C753.657,517.445 758.782,515.341 760.544,514.62C767.842,511.637 770.498,502.543 766.433,494.457C763.971,489.561 764.169,489.541 741.582,497.024ZM604.462,520.017C602.795,521.675 602.719,524.616 603.411,560.589C604.467,615.374 604.078,613.879 617.016,612.79C631.773,611.547 630.987,613.159 629.857,586.452C629.365,574.797 628.593,555.423 628.142,543.397C627.557,527.771 626.93,521.062 625.945,519.881C623.876,517.402 606.985,517.508 604.462,520.017ZM416.426,504.988C394.71,506.122 395.916,505.245 392.451,522.43C390.151,533.842 381.317,583.877 379.834,593.896C379.35,597.174 379.722,598.174 382.437,600.874C386.195,604.61 384.004,604.534 412.942,601.951L436.174,599.878L438.959,596.849C450.454,584.342 442.724,574.132 423.613,576.583C416.374,577.511 410.235,578.055 409.97,577.791C409.574,577.397 410.638,563.933 411.09,563.613C411.167,563.559 417.172,562.936 424.433,562.228C440.394,560.674 440.852,560.379 440.852,551.629C440.852,540.267 439.47,539.547 423.182,542.432C415.028,543.878 412.094,536.773 417.538,528.767C417.656,528.595 423.742,527.792 431.065,526.986C447.091,525.22 447.797,524.736 449.258,514.529C450.924,502.892 451.784,503.142 416.426,504.988ZM234.063,533.334C200.819,542.559 199.066,545.193 177.881,617.764C168.581,649.624 167.32,648.469 201.836,639.712C235.635,631.137 232.838,632.134 234.958,627.908C243.52,610.844 239.546,607.06 217.457,611.247C204.6,613.683 205.464,614.137 208.112,606.338C210.813,598.385 210.325,598.729 225.182,594.295C239.337,590.071 241.382,588.498 243.355,580.314C245.531,571.296 243.421,570.453 228.56,574.406C217.958,577.226 218.033,577.317 222.403,566.914L225.182,560.298L239.202,556.871C254.535,553.123 255.006,552.808 257.434,544.677C262.183,528.772 257.934,526.71 234.063,533.334ZM477.921,505.299C449.994,515.892 441.974,566.776 464.334,591.509C483.751,612.986 522.824,602.913 523.387,576.284C523.609,565.753 508.093,562.468 503.198,572.01C494.509,588.949 480.637,580.444 478.702,556.992C476.953,535.775 483.277,523.825 495.018,526.16C498.731,526.898 507.371,534.562 507.371,537.116C507.371,541.879 519.009,543.867 523.096,539.803C538.304,524.678 501.314,496.425 477.921,505.299ZM361.899,509.09C330.275,512.125 332.3,510.482 325.153,538.902C307.512,609.057 307.461,615.213 324.552,611.762C336.058,609.44 336.903,608.928 336.965,604.247C336.993,602.135 339.029,592.499 341.488,582.834L345.959,565.261L356.767,564.066C362.713,563.409 367.95,562.828 368.408,562.774C369.958,562.593 372.253,555.534 372.253,550.95C372.253,544.439 370.874,543.672 360.334,544.325C350.032,544.965 350.385,545.157 351.728,539.628C353.268,533.283 353.846,532.997 368.448,531.366C383.417,529.694 385.22,528.752 386.852,521.744C388.304,515.512 385.738,506.301 382.746,507.003C382.406,507.084 373.024,508.022 361.899,509.09ZM530.588,514.685C523.822,521.415 528.888,533.205 539.01,534.283C547.684,535.206 547.677,535.196 548.965,550.36C550.604,569.665 554.106,604.236 554.68,606.798C555.349,609.773 558.198,610.557 567.88,610.436C581.998,610.26 581.272,613.363 577.694,568.533C575.043,535.309 574.343,537.879 586.035,537.853C595.858,537.831 597.797,535.99 597.797,526.681C597.797,517.781 597.177,517.481 574.931,515.616C564.355,514.729 551.727,513.563 546.868,513.023C534.366,511.637 533.572,511.718 530.588,514.685Z" style="fill:white;"/>
                </g>
            </g>
        </g>
        <g id="Layer1">
        </g>
    </g>
</svg>
